X:1
T:The Hiring Fair At Hamiltonsbawn
M:6/8
L:1/8
K:F
A-c| d2 cA-G A| c3 C2 D| G2 E D/2 D/2- D2| D3- D2 E| D2 E G2 A| d2 d c2 e|\
 d2 cA-G A| c3- c2 F| D2 D F2 G| d2 d c2 d/2e/2| d2 c AGA| c3- c2 A/2c/2|\
 d2 cA-G A| c2 c- C2 E/2E/2| G2 E D2 D| D3 z||
